lib/images/innoq-logo--bluered.svg

<svg height="26" viewBox="0 0 98 26" width="98" xmlns="http://www.w3.org/2000/svg"><g fill="none" fill-rule="evenodd"><path d="m0 25h6v-24h-6z" fill="#fff"/><path d="m39.4973124 1v14.6398008l-10.479423-14.6398008h-2.4130097-2.8434049-.0264141v14.6398008l-10.479423-14.6398008h-5.2556377v24h5.4855961v-14.6398008l10.479423 14.6398008h.9143955 3.1036619 1.2647713v-14.6398008l10.479423 14.6398008h5.2727292v-24z" fill="#fff"/><g transform="translate(46)"><path d="m12.4735351.12690854c-7.07910687 0-12.09276378 5.25310975-12.09276378 12.38329266 0 7.1293903 5.01365691 12.3832927 12.09276378 12.3832927 7.0791069 0 12.0927638-5.2539024 12.0927638-12.3832927 0-7.13018291-5.0136569-12.38329266-12.0927638-12.38329266m0 5.45841463c3.7364106 0 6.3908819 2.83146342 6.3908819 6.92487803 0 4.0934147-2.6544713 6.9248781-6.3908819 6.9248781-3.73641058 0-6.39088189-2.8314634-6.39088189-6.9248781 0-4.09341461 2.65447131-6.92487803 6.39088189-6.92487803" fill="#fff"/><path d="m38.238415.59958537c-7.0791069 0-12.0927638 5.25310975-12.0927638 12.38329263 0 7.1293903 5.0136569 12.3832927 12.0927638 12.3832927 2.4087874 0 4.4734623-.699939 6.2265759-1.8421951l1.0160619 1.3982927h6.4397086l-3.6209314-5.1167683c1.2780214-1.8937195 2.0313487-4.144939 2.0313487-6.822622 0-7.13018288-5.0136569-12.38329263-12.0927637-12.38329263m0 5.45841463c3.7356355 0 6.3908819 2.83146341 6.3908819 6.924878 0 .7847561-.0984286 1.5179879-.2790102 2.2004879l-.7370517-1.0407927h-5.9646164l3.6209313 5.0485975c-.884307.4605488-1.9166445.7165854-3.0311349.7165854-3.7364106 0-6.3908819-2.8314634-6.3908819-6.9248781 0-4.09341459 2.6544713-6.924878 6.3908819-6.924878" fill="#fff458"/></g><path d="m0 25h6v-24h-6z" fill="#24244c"/><path d="m39.4973124 1v14.6398008l-10.479423-14.6398008h-2.4130097-2.8434049-.0264141v14.6398008l-10.479423-14.6398008h-5.2556377v24h5.4855961v-14.6398008l10.479423 14.6398008h.9143955 3.1036619 1.2647713v-14.6398008l10.479423 14.6398008h5.2727292v-24z" fill="#24244c"/><g transform="translate(46)"><path d="m12.4735351.12690854c-7.07910687 0-12.09276378 5.25310975-12.09276378 12.38329266 0 7.1293903 5.01365691 12.3832927 12.09276378 12.3832927 7.0791069 0 12.0927638-5.2539024 12.0927638-12.3832927 0-7.13018291-5.0136569-12.38329266-12.0927638-12.38329266m0 5.45841463c3.7364106 0 6.3908819 2.83146342 6.3908819 6.92487803 0 4.0934147-2.6544713 6.9248781-6.3908819 6.9248781-3.73641058 0-6.39088189-2.8314634-6.39088189-6.9248781 0-4.09341461 2.65447131-6.92487803 6.39088189-6.92487803" fill="#24244c"/><path d="m38.238415.59958537c-7.0791069 0-12.0927638 5.25310975-12.0927638 12.38329263 0 7.1293903 5.0136569 12.3832927 12.0927638 12.3832927 2.4087874 0 4.4734623-.699939 6.2265759-1.8421951l1.0160619 1.3982927h6.4397086l-3.6209314-5.1167683c1.2780214-1.8937195 2.0313487-4.144939 2.0313487-6.822622 0-7.13018288-5.0136569-12.38329263-12.0927637-12.38329263m0 5.45841463c3.7356355 0 6.3908819 2.83146341 6.3908819 6.924878 0 .7847561-.0984286 1.5179879-.2790102 2.2004879l-.7370517-1.0407927h-5.9646164l3.6209313 5.0485975c-.884307.4605488-1.9166445.7165854-3.0311349.7165854-3.7364106 0-6.3908819-2.8314634-6.3908819-6.9248781 0-4.09341459 2.6544713-6.924878 6.3908819-6.924878" fill="#ff4d67"/></g></g></svg>

<?xml version="1.0" encoding="UTF-8"?>
<svg width="98px" height="26px" viewBox="0 0 98 26" version="1.1" xmlns="http://www.w3.org/2000/svg" xmlns:xlink="http://www.w3.org/1999/xlink">
    <!-- Generator: Sketch 47.1 (45422) - http://www.bohemiancoding.com/sketch -->
    <title>Logo blue red</title>
    <desc>Created with Sketch.</desc>
    <defs></defs>
    <g id="Icons" stroke="none" stroke-width="1" fill="none" fill-rule="evenodd">
        <g id="Logo-blue-red">
            <g id="Page-1">
                <polygon id="Fill-1" fill="#FFFFFF" points="0 25 6 25 6 1 0 1"></polygon>
                <polygon id="Fill-2" fill="#FFFFFF" points="39.4973124 1 39.4973124 15.6398008 29.0178894 1 26.6048797 1 23.7614748 1 23.7350607 1 23.7350607 15.6398008 13.2556377 1 8 1 8 25 13.4855961 25 13.4855961 10.3601992 23.9650191 25 24.8794146 25 27.9830765 25 29.2478478 25 29.2478478 10.3601992 39.7272708 25 45 25 45 1"></polygon>
                <g id="Group-7" transform="translate(46.000000, 0.000000)">
                    <path d="M12.4735351,0.126908537 C5.39442823,0.126908537 0.380771316,5.38001829 0.380771316,12.5102012 C0.380771316,19.6395915 5.39442823,24.8934939 12.4735351,24.8934939 C19.552642,24.8934939 24.5662989,19.6395915 24.5662989,12.5102012 C24.5662989,5.38001829 19.552642,0.126908537 12.4735351,0.126908537 M12.4735351,5.58532317 C16.2099457,5.58532317 18.864417,8.41678659 18.864417,12.5102012 C18.864417,16.6036159 16.2099457,19.4350793 12.4735351,19.4350793 C8.73712452,19.4350793 6.08265321,16.6036159 6.08265321,12.5102012 C6.08265321,8.41678659 8.73712452,5.58532317 12.4735351,5.58532317" id="Fill-3" fill="#FFFFFF"></path>
                    <path d="M38.238415,0.599585366 C31.1593081,0.599585366 26.1456512,5.85269512 26.1456512,12.982878 C26.1456512,20.1122683 31.1593081,25.3661707 38.238415,25.3661707 C40.6472024,25.3661707 42.7118773,24.6662317 44.4649909,23.5239756 L45.4810528,24.9222683 L51.9207614,24.9222683 L48.29983,19.8055 C49.5778514,17.9117805 50.3311787,15.660561 50.3311787,12.982878 C50.3311787,5.85269512 45.3175218,0.599585366 38.238415,0.599585366 M38.238415,6.058 C41.9740505,6.058 44.6292969,8.88946341 44.6292969,12.982878 C44.6292969,13.7676341 44.5308683,14.5008659 44.3502867,15.1833659 L43.613235,14.1425732 L37.6486186,14.1425732 L41.2695499,19.1911707 C40.3852429,19.6517195 39.3529054,19.9077561 38.238415,19.9077561 C34.5020044,19.9077561 31.8475331,17.0762927 31.8475331,12.982878 C31.8475331,8.88946341 34.5020044,6.058 38.238415,6.058" id="Fill-5" fill="#FFF458"></path>
                </g>
                <polygon id="Fill-8" fill="#24244C" points="0 25 6 25 6 1 0 1"></polygon>
                <polygon id="Fill-9" fill="#24244C" points="39.4973124 1 39.4973124 15.6398008 29.0178894 1 26.6048797 1 23.7614748 1 23.7350607 1 23.7350607 15.6398008 13.2556377 1 8 1 8 25 13.4855961 25 13.4855961 10.3601992 23.9650191 25 24.8794146 25 27.9830765 25 29.2478478 25 29.2478478 10.3601992 39.7272708 25 45 25 45 1"></polygon>
                <g id="Group-14" transform="translate(46.000000, 0.000000)">
                    <path d="M12.4735351,0.126908537 C5.39442823,0.126908537 0.380771316,5.38001829 0.380771316,12.5102012 C0.380771316,19.6395915 5.39442823,24.8934939 12.4735351,24.8934939 C19.552642,24.8934939 24.5662989,19.6395915 24.5662989,12.5102012 C24.5662989,5.38001829 19.552642,0.126908537 12.4735351,0.126908537 M12.4735351,5.58532317 C16.2099457,5.58532317 18.864417,8.41678659 18.864417,12.5102012 C18.864417,16.6036159 16.2099457,19.4350793 12.4735351,19.4350793 C8.73712452,19.4350793 6.08265321,16.6036159 6.08265321,12.5102012 C6.08265321,8.41678659 8.73712452,5.58532317 12.4735351,5.58532317" id="Fill-10" fill="#24244C"></path>
                    <path d="M38.238415,0.599585366 C31.1593081,0.599585366 26.1456512,5.85269512 26.1456512,12.982878 C26.1456512,20.1122683 31.1593081,25.3661707 38.238415,25.3661707 C40.6472024,25.3661707 42.7118773,24.6662317 44.4649909,23.5239756 L45.4810528,24.9222683 L51.9207614,24.9222683 L48.29983,19.8055 C49.5778514,17.9117805 50.3311787,15.660561 50.3311787,12.982878 C50.3311787,5.85269512 45.3175218,0.599585366 38.238415,0.599585366 M38.238415,6.058 C41.9740505,6.058 44.6292969,8.88946341 44.6292969,12.982878 C44.6292969,13.7676341 44.5308683,14.5008659 44.3502867,15.1833659 L43.613235,14.1425732 L37.6486186,14.1425732 L41.2695499,19.1911707 C40.3852429,19.6517195 39.3529054,19.9077561 38.238415,19.9077561 C34.5020044,19.9077561 31.8475331,17.0762927 31.8475331,12.982878 C31.8475331,8.88946341 34.5020044,6.058 38.238415,6.058" id="Fill-12" fill="#FF4D67"></path>
                </g>
            </g>
        </g>
    </g>
</svg>
